!!!!SEGMENT: pl-kk--i-545--006_anonim--6-offertorium-pro-virgine-tantum-filiae-regum-in-honore-tuo.krn
!!!cenid: 18xx:4483
!!!COM: Anonim
!!!COM-rismID: pe30004985
!!!CDT:
!!!CNT:
!!!OTL: 6. Offertorium (pro Virgine tantum)/Filiae Regum in honore tuo
!!!PDT:
!!!AGN: Sacred
!!!YEC: Copyright 2022 Narodowy Instytut Fryderyka Chopina (https://polishscores.org)
!!!YEM: License CC-BY-4.0 (https://creativecommons.org/licenses/by/4.0)
!!!SMS-siglum: PL-Kk
!!!SMS-shelfmark: I.545
!!!SMS-variant:
!!!SMS-altvar:
!!!SMS-shelfwork: 006 W
!!!NIFC-rismSourceID: 1001210831
!!!NIFC-rismChildID: 1001210839
!!!NIFC-islandoraID: pl-kk:17058
!!!URL-pdf-islandora: https://repozytorium.nifc.pl/islandora/object/pl-kk%3A17058/datastream/PDF/view
!!!URL-scan: https://polish.musicsources.pl/pl/lokalizacje/galeria/rekopisy/7172/5 @EN{Scan on Polish Music Sources Website} @PL{Skany w portalu Dziedzictwo Muzyki Polskiej w otwartym dostępie}
!!!IIIF:
!!!ONB-nifc: UWAGA: 4r-5r.
!!!AIN: 1 alto 1 bass 1 organ 1 soprn 1 tenor
!!!key: E-
**kern	**kern	**dynam	**kern	**text	**dynam	**kern	**text	**dynam
*part3	*part3	*part3	*part2	*part2	*part2	*part1	*part1	*part1
*staff4	*staff3	*staff3/4	*staff2	*staff2	*	*staff1	*staff1	*
*ICklav	*ICklav	*	*ICvox	*	*	*ICvox	*	*
*Iorgan	*Iorgan	*	*Itenor&Ibass	*	*	*Isoprn&Ialto	*	*
*I"[Organo]	*I"[Organo]	*	*I"[Voci]	*	*	*I"[Voci]	*	*
*clefF4	*clefG2	*	*clefF4	*	*	*clefG2	*	*
*k[b-e-a-]	*k[b-e-a-]	*	*k[b-e-a-]	*	*	*k[b-e-a-]	*	*
*E-:	*E-:	*	*E-:	*	*	*E-:	*	*
*M4/4	*M4/4	*	*M4/4	*	*	*M4/4	*	*
*met(c)	*met(c)	*	*met(c)	*	*	*met(c)	*	*
=1	=1	=1	=1	=1	=1	=1	=1	=1
*^	*^	*	*^	*	*	*	*	*
!!LO:TX:a:B:t=Andante
!	!	!	!	!	!	!	!	!LO:DY:a	!	!	!
2G/	4E-\	2e-/	4B-\	.	4.E-/	4.E-\	Fi-	mf	1ryy	.	.
.	4C\	.	2e-\	.	.	.	.	.	.	.	.
.	.	.	.	.	8E-/	8E-\	-li-	.	.	.	.
2B-/	2BB-\	2f/	.	.	2F/	2F\	-ae	.	.	.	.
.	.	.	4d\	.	.	.	.	.	.	.	.
*	*	*	*	*	*v	*v	*	*	*	*	*
=2	=2	=2	=2	=2	=2	=2	=2	=2	=2	=2
4c/	4AA-\	2a-/	4e-\	.	2A-\	re-	.	1ryy	.	.
2.B-/	4BB-\	.	4d\	.	.	.	.	.	.	.
.	4E-\	2g/	2e-\	.	2G\	-gum	.	.	.	.
.	8D\L	.	.	.	.	.	.	.	.	.
.	8C\J	.	.	.	.	.	.	.	.	.
=3	=3	=3	=3	=3	=3	=3	=3	=3	=3	=3
*	*	*	*	*	*	*	*	*^	*	*
!	!	!	!	!	!	!	!	!	!	!	!LO:DY:a
2d/	4BB-\	2b-/	4f\	.	1r	.	.	4.b-/	4.b-\	Fi-	mf
.	4B-\	.	4g\	.	.	.	.	.	.	.	.
.	.	.	.	.	.	.	.	8b-/	8b-\	-li-	.
4ryy/	8e- 8A-\L	2cc/	2a-\	.	.	.	.	2cc/	2cc\	-ae	.
.	8G\J	.	.	.	.	.	.	.	.	.	.
4f/	4F\	.	.	.	.	.	.	.	.	.	.
=4	=4	=4	=4	=4	=4	=4	=4	=4	=4	=4	=4
*	*	*	*	*	*^	*^	*	*	*	*	*
*	*	*	*	*	*	*	*	*above	*	*	*	*	*
4g/	2C\	2ee-/	8cc\L	.	2r	2r	.	.	.	2ee-/	2ee-\	re-	.
.	.	.	8b-\J	.	.	.	.	.	.	.	.	.	.
4f/	.	.	4an\	.	.	.	.	.	.	.	.	.	.
2f/	2BB-\	2dd/	2b-\	.	4ryy	4r	.	.	.	2dd/	2dd\	-gum	.
.	.	.	.	.	4r	8BB-\	.	In	.	.	.	.	.
.	.	.	.	.	.	8BB-\	.	ho-	.	.	.	.	.
*v	*v	*	*	*	*	*	*	*	*	*	*	*	*
*	*v	*v	*	*	*	*	*	*	*	*	*	*
=5	=5	=5	=5	=5	=5	=5	=5	=5	=5	=5	=5
1r	1r	.	4r	4B-\	.	-no-	.	4.dd/	4.b-\	In	.
.	.	.	8BB-/	4A-X\	in	-re	.	.	.	.	.
.	.	.	8BB-/	.	ho-	.	.	8dd/	8b-\	ho-	.
.	.	.	(4B-/	(4G\	-no-	tu-	.	4ee-/	4b-\	-no-	.
.	.	.	4A-X/)	4F\)	-re	.	.	4ff/	4b-\	-re	.
=6	=6	=6	=6	=6	=6	=6	=6	=6	=6	=6	=6
*^	*^	*	*	*	*	*	*	*	*	*	*
4r	4ryy	4r	4ryy	.	2G/	2.E-\	tu-	-o	.	2gg/	2b-\	tu-	.
2.G/	4.E-\	4e-/	2.e-\	.	.	.	.	.	.	.	.	.	.
.	.	4.ee-/	.	.	4G/	.	-o	.	.	4ee-/	4b-\	-o	.
.	8D\L	.	.	.	.	.	.	.	.	.	.	.	.
.	8C\	.	.	.	4ryy	4r	.	.	.	4ryy	4ryy	.	.
.	8BB-\J	8dd/	.	.	.	.	.	.	.	.	.	.	.
*	*	*	*	*	*	*	*v	*v	*	*	*	*	*
!!LO:LB:g=original
=7	=7	=7	=7	=7	=7	=7	=7	=7	=7	=7	=7	=7
*	*	*	*	*	*	*	*below	*	*	*	*	*
2A-/	4AA-\	2cc/	2e-\	.	4.A-/	4.A-\	.	.	4.a-/	4.a-\	Fi-	.
.	8A-\L	.	.	.	.	.	.	.	.	.	.	.
.	8G\J	.	.	.	8A-/	8A-\	.	.	8a-/	8a-\	-li-	.
4A-/	4F\	2b-/	4d\	.	2B-/	2r	.	.	2b-/	2b-\	-ae	.
4G/	4E-\	.	4e-\	.	.	.	.	.	.	.	.	.
=8	=8	=8	=8	=8	=8	=8	=8	=8	=8	=8	=8	=8
!	!	!	!	!	!LO:N:vis=1	!	!	!	!	!	!	!
4A-/	8D-X\L	2dd-X/	4f\	.	2d-X/	1r	.	.	2dd-X/	2dd-\	re-	.
.	8C\J	.	.	.	.	.	.	.	.	.	.	.
4G/	4BB-\	.	2.e-\	.	.	.	.	.	.	.	.	.
2A-/	4AA-\	2cc/	.	.	2c/	.	.	.	2cc/	2cc\	-gum	.
.	8C\L	.	.	.	.	.	.	.	.	.	.	.
.	8E-\J	.	.	.	.	.	.	.	.	.	.	.
=9	=9	=9	=9	=9	=9	=9	=9	=9	=9	=9	=9	=9
*	*	*	*	*	*	*	*^	*	*	*	*^	*
*	*	*	*	*	*	*	*above	*	*	*	*	*above	*	*
!	!	!	!	!	!	!	!	!	!	!	!	!	!	!LO:DY:a:rj
2c/	4A-\	2.a-/	2e-\	.	4.A-\	4A-\yy	Fi-	Fi-	.	4.cc/	2a-\	Fi-	Fi-	f
.	4G-X\	.	.	.	.	4G-X\	.	-li-	.	.	.	.	.	.
.	.	.	.	.	8A-/	.	-li-	.	.	8cc/	.	-li-	.	.
4d-X 4F\	4ryy	.	4f\	.	2A-/	(4F\	-ae	-ae	.	(4dd-X/	(4a-\	-ae	-li-	.
4ryy	4E-\	4cc 4a- 4e-/	4ryy	.	.	4E-\)	.	.	.	4ee-/)	4cc\)	.	-ae	.
*v	*v	*	*	*	*	*	*	*	*	*	*	*	*	*
=10	=10	=10	=10	=10	=10	=10	=10	=10	=10	=10	=10	=10	=10
4D-X\	8dd-X/L	2a- 2f\	.	2A-/	(4D-X\	re-	re-	.	2ff/	(8dd-X\L	re-	re-	.
.	8cc/J	.	.	.	.	.	.	.	.	8cc\J	.	.	.
4Dn\	4b-/	.	.	.	4Dn\)	.	.	.	.	4b-\)	.	.	.
2E-\	2b- 2g 2e-/	2ryy	.	2G/	4E-\	-gum	-gum	.	2ee-/	2b-\	-gum	-gum	.
.	.	.	.	.	8E-\	.	in	.	.	.	.	.	.
.	.	.	.	.	8E-\	.	ho-	.	.	.	.	.	.
*	*v	*v	*	*	*	*	*	*	*	*	*	*	*
=11	=11	=11	=11	=11	=11	=11	=11	=11	=11	=11	=11	=11
!	!	!	!	!	!	!	!	!	!	!	!	!LO:DY:a:rj
1r	1r	.	4c/	(4A-\	in	-no-	.	4ee-/	2cc\	in	in	ff
.	.	.	4B-/	4Gn\	ho-	.	.	4een/	.	ho-	.	.
.	.	.	4A-/	4F\)	-no-	.	.	4ff/	4cc\	-no-	ho-	.
.	.	.	4A-/	4D-X\	-re	-re	.	4ff/	[4dd-X\	-re	-no-	.
=12	=12	=12	=12	=12	=12	=12	=12	=12	=12	=12	=12	=12
1r	1r	.	4G/	1E-	tu-	tu-	.	1ee-	(4dd-\]	tu-	.	.
.	.	.	(2A-/	.	.	.	.	.	4cc\	.	-re	.
.	.	.	.	.	.	.	.	.	2b-\)	.	tu-	.
.	.	.	4G/)	.	.	.	.	.	.	.	.	.
=13	=13	=13	=13	=13	=13	=13	=13	=13	=13	=13	=13	=13
*^	*^	*	*	*	*	*	*	*	*	*	*	*
4r	4ryy	4r	4ryy	.	2A-/	2AA-\	-o	-o	.	2ee-/	2cc\	-o	-o	.
!	!	!	!	!LO:DY:a:rj	!	!	!	!	!	!	!	!	!	!
2e-/	4A-\	4cc/	4a-\	f	.	.	.	.	.	.	.	.	.	.
.	4G\	4ee-/	4b-\	.	2r	2ryy	.	.	.	2r	2ryy	.	.	.
4c/	4F\	4a-/	4a-\	.	.	.	.	.	.	.	.	.	.	.
*	*	*	*	*	*	*	*v	*v	*	*	*	*v	*v	*
*	*	*	*	*	*v	*v	*	*	*	*	*	*
*	*	*	*	*	*	*	*	*v	*v	*	*
!!LO:PB:g=original
=14	=14	=14	=14	=14	=14	=14	=14	=14	=14	=14
*	*	*	*	*	*	*below	*	*	*below	*
4f/	4BB-\	4dd-X/	4b-\	.	1r	.	.	1r	.	.
4.e-/	8C\L	4cc/	4a-\	.	.	.	.	.	.	.
.	8D-X\J	.	.	.	.	.	.	.	.	.
.	4E-\	2b-/	2g\	.	.	.	.	.	.	.
8d-X/	.	.	.	.	.	.	.	.	.	.
4c/	4En\	.	.	.	.	.	.	.	.	.
=15	=15	=15	=15	=15	=15	=15	=15	=15	=15	=15
*	*	*	*	*	*^	*	*	*	*	*
!LO:N:vis=2	!	!	!	!LO:DY:a:rj	!	!	!	!LO:DY:a:rj	!	!	!
2.c/	4.F\	2.a-/	2.f\	mf	4.A-/	4.A-\	a-	mf	1r	.	.
.	8G\	.	.	.	8G/	8G\	-sti-	.	.	.	.
.	2A-\	.	.	.	4F/	4F\	-tit	.	.	.	.
4B-/	.	4b-/	4d\	.	4A-/	4A-\	me	.	.	.	.
=16	=16	=16	=16	=16	=16	=16	=16	=16	=16	=16	=16
*	*	*	*	*	*	*	*	*	*^	*	*
!LO:N:vis=2.	!	!	!	!	!	!	!	!	!	!	!	!LO:DY:a:rj
2B-/	8G\L	4.ee-/	4.e-\	.	(8G/L	8G\L	re-	.	4.ee-/	4.ee-\	a-	mf
.	8A-\	.	.	.	8A-/	8A-\	.	.	.	.	.	.
.	8G\	.	.	.	8G/	8G\	-gi-	.	.	.	.	.
.	8F\J	8dd/	8f\	.	8F/J)	8F\J	.	.	8dd/	8dd\	-sti-	.
4G/	8E-\L	4cc/	4g\	.	2E-/	2E-\	-na	.	4cc/	4cc\	-tit	.
.	8D\J	.	.	.	.	.	.	.	.	.	.	.
4An/	4C\	4ee-/	4f\	.	.	.	.	.	4ee-/	4ee-\	re-	.
=17	=17	=17	=17	=17	=17	=17	=17	=17	=17	=17	=17	=17
4B-/	2BB-\	8dd/L	8f\L	.	2r	2ryy	.	.	(8dd/L	8dd\L	-gi-	.
.	.	8cc/	8e-\J	.	.	.	.	.	8ee-/	8ee-\	.	.
4F/	.	8b-/	4d\	.	.	.	.	.	8dd/	8dd\	.	.
.	.	8a-/J	.	.	.	.	.	.	8cc/J)	8cc\J	.	.
2E-/	2E-\	2g/	2B-\	.	4r	4ryy	.	.	2b-/	2b-\	-na	.
.	.	.	.	.	4E-/	4E-\	a	.	.	.	.	.
*v	*v	*	*	*	*	*	*	*	*	*	*	*
*	*v	*v	*	*	*	*	*	*	*	*	*
=18	=18	=18	=18	=18	=18	=18	=18	=18	=18	=18
*	*	*	*	*	*	*	*	*	*^	*
*	*	*	*	*	*	*	*	*	*above	*	*
1r	1r	.	2F/	2D\	.	.	4r	4ryy	.	.	.
.	.	.	.	.	.	.	4b-/	4b-\	a	.	.
.	.	.	2G/	4E-\	.	.	(4.cc/	4.cc\	de-	.	.
.	.	.	.	4D\	.	.	.	.	.	.	.
.	.	.	.	.	.	.	8dd/	8bn\	.	.	.
=19	=19	=19	=19	=19	=19	=19	=19	=19	=19	=19	=19
1r	1r	.	4G/	8C\L	.	.	4ee-/)	2cc\	.	.	.
.	.	.	.	8BB-\J	.	.	.	.	.	.	.
.	.	.	2F/	4AAn\	.	.	4ee-/	.	-xtris	.	.
.	.	.	.	2BB-\	.	.	(4dd/	(4b-X\	tu-	.	.
.	.	.	4E-/	.	.	.	4cc/)	4an\)	.	.	.
=20	=20	=20	=20	=20	=20	=20	=20	=20	=20	=20	=20
1r	1r	.	4D/	4BB-\	.	.	4b-/	4b-\	-is	.	.
.	.	.	8G/	8GG\	.	.	8dd/	8b-\	in	in	.
.	.	.	8G/	8GG\	.	.	8dd/	8b-\	ve-	ve-	.
.	.	.	4G/	4C\	.	.	4ee-/	4cc\	-sti-	-sti-	.
.	.	.	4A-/	4AA-\	.	.	4ee-/	4cc\	-tu	-tu	.
*	*	*	*	*	*	*	*	*	*v	*v	*
!!LO:LB:g=original
=21	=21	=21	=21	=21	=21	=21	=21	=21	=21	=21
*	*	*	*	*	*	*	*	*	*below	*
1r	1r	.	4F/	4BB-\	.	.	4dd-X/	4b-X\	de-	.
.	.	.	4F/	4BB-\	.	.	4dd-/	4b-\	-au-	.
.	.	.	4F/	2C\	.	.	2cc/	2g\	-ra-	.
.	.	.	8En/L	.	.	.	.	.	.	.
.	.	.	8D/J	.	.	.	.	.	.	.
=22	=22	=22	=22	=22	=22	=22	=22	=22	=22	=22
1r	1r	.	4En/	4C\	.	.	4cc/	4g\	-to	.
.	.	.	8F/	8FF\	.	.	8cc/	8a-\	in	.
.	.	.	8F/	8FF\	.	.	8cc/	8a-\	ve-	.
.	.	.	4F/	4BB-\	.	.	4ddn/	4b-\	-sti-	.
.	.	.	4G/	4GG\	.	.	4ee-/	4b-\	-tu	.
=23	=23	=23	=23	=23	=23	=23	=23	=23	=23	=23
1r	1r	.	4A-/	4FF\	.	.	4ff/	4cc\	de-	.
.	.	.	4G/	4C\	.	.	4ee-/	4cc\	-aur-	.
.	.	.	2F/	2AA-\	.	.	(4ee-/	2cc\	-ra-	.
.	.	.	.	.	.	.	8dd/L	.	.	.
.	.	.	.	.	.	.	8cc/J)	.	.	.
*	*	*	*	*	*	*	*v	*v	*	*
=24	=24	=24	=24	=24	=24	=24	=24	=24	=24
*^	*	*^	*	*	*	*	*	*	*
2r	2ryy	2r	.	.	8F/L	2BB-\	.	.	2dd 2b-/	.	.
.	.	.	.	.	8G/J	.	.	.	.	.	.
.	.	.	.	.	4A-/	.	.	.	.	.	.
!	!	!	!LO:DY:a:rj	!LO:DY:a=2:rj	!	!	!	!	!	!	!
2G/	2E-\	2e- 2B-/	p	p	2G/	4E-\	.	.	2ee-/	-to	.
.	.	.	.	.	.	4E-\	cir-	.	.	.	.
*	*	*	*v	*v	*	*	*	*	*	*	*
=25	=25	=25	=25	=25	=25	=25	=25	=25	=25	=25
*	*	*^	*	*	*	*	*	*	*	*
!	!	!	!LO:SIC:v:s=4.d-\	!	!	!	!	!	!	!	!
4.A-/	4.D-X\	4.f/	4.d\	.	1r	4.F\	-cum-	.	1r	.	.
8G/	8E-\	8e-/	8B-\	.	.	8E-\	-da-	.	.	.	.
2A-/	8A-\L	4e-/	2c\	.	.	4E-\	-ta	.	.	.	.
.	8G\J	.	.	.	.	.	.	.	.	.	.
.	4F\	4a-/	.	.	.	[>4A-\	va-	.	.	.	.
*	*	*	*	*	*v	*v	*	*	*	*	*
=26	=26	=26	=26	=26	=26	=26	=26	=26	=26	=26
4A-/	4F\	4a-/	4dn\	.	8A-\]	.	.	1r	.	.
.	.	.	.	.	8A-\	-ri-	.	.	.	.
2B-/	4E-\	4g/	2e-\	.	4G\	-e-	.	.	.	.
.	2BB-\	2f/	.	.	2F\	-ta	.	.	.	.
4ryy	.	.	4d\	.	.	.	.	.	.	.
!!LO:PB:g=original
=27	=27	=27	=27	=27	=27	=27	=27	=27	=27	=27
*	*	*	*	*	*^	*	*	*^	*	*
!	!	!	!	!	!	!	!	!	!	!	!	!LO:DY:a
2B-/	2E-\	2g/	2e-\	.	4r	2G\	te	.	4r	4ryy	.	mf
.	.	.	.	.	4E-/	.	.	.	4b-/	4g\	cir-	.
2A-/	4C\	4e-/	8e-\L	.	4C/	2r	.	.	4.cc/	4a-\	-cum-	.
.	.	.	8d\	.	.	.	.	.	.	.	.	.
.	4Dn\	4f/	8c\	.	4D/	.	.	.	.	4a-\	.	.
.	.	.	8B-\J	.	.	.	.	.	8b-/	.	-da-	.
=28	=28	=28	=28	=28	=28	=28	=28	=28	=28	=28	=28	=28
2G/	4E-\	4e- 4B-/	4ryy	.	4E-/	1r	.	.	4b-/	4g\	-ta	.
.	4C\	2e-/	2e-\	.	4C/	.	.	.	4.ee-/	4g\	va-	.
4An/	4F\	.	.	.	4F/	.	.	.	.	4an\	.	.
.	.	.	.	.	.	.	.	.	8ee-/	.	-ri-	.
[4B-/	4G\	4d/	4d\	.	4G/	.	.	.	4dd/	4b-\	-e-	.
=29	=29	=29	=29	=29	=29	=29	=29	=29	=29	=29	=29	=29
4B-/]	4E-\	2c/	2c\	.	4E-/	2r	.	.	2cc/	(4b-\	-ta-	.
4An/	4F\	.	.	.	4F/	.	.	.	.	4an\)	.	.
4B-/	2BB-\	2ryy	2ryy	.	4BB-/	4r	.	.	4b-/	4b-\	-te,	.
4A-X/	.	.	.	.	4B-/	4BB-\	.	.	4ff/	4dd\	cir-	.
=30	=30	=30	=30	=30	=30	=30	=30	=30	=30	=30	=30	=30
1G	2.E-\	4e-/	[1e-	.	4.B-/	4.E-\	.	.	4.gg/	4.ee-\	-cum-	.
.	.	8g/L	.	.	.	.	.	.	.	.	.	.
.	.	8b-/J	.	.	8G/	8E-\	.	.	8ee-/	8b-\	-da-	.
.	.	[2ee-/	.	.	4G/	4E-\	.	.	4ee-/	4b-\	-ta	.
.	4C\	.	.	.	4G/	4C\	.	.	[4ee-/	[4cc\	va-	.
=31	=31	=31	=31	=31	=31	=31	=31	=31	=31	=31	=31	=31
2.A-/	2AA-\	8ee-/L]	2e-\]	.	4A-/	4AA-\	.	.	8ee-/]	8cc\]	.	.
.	.	8dd/J	.	.	.	.	.	.	8dd/	8b-\	-ri-	.
.	.	4cc/	.	.	4E-/	4AA-\	.	.	4cc/	4a-X\	-e-	.
!	!	!	!	!	!	!LO:N:vis=1	!	!	!	!	!	!
.	2BB-\	2b-/	4d\	.	4D/	2BB-\	.	.	2b-/	(4a-\	-ta-	.
4G/	.	.	4e-\	.	4E-/	.	.	.	.	4g\)	.	.
!!LO:LB:g=original
=32	=32	=32	=32	=32	=32	=32	=32	=32	=32	=32	=32	=32
2F/	2BB-\	2.b-/	4e-\	.	4E-/	2BB-\	.	.	2b-/	2f\	.	.
.	.	.	4d\	.	4D/	.	.	.	.	.	.	.
4G/	2E-\	.	2e-\	.	4E-/	4E-\	.	.	4b-/	4g\	-te	.
4B-/	.	4g/	.	.	4E-/	4E-\	.	.	4g/	4g\	cir-	.
=33	=33	=33	=33	=33	=33	=33	=33	=33	=33	=33	=33	=33
*	*	*	*	*	*	*	*	*	*	*	*^	*
4.A-/	2AA-\	2cc/	2e-\	.	4.E-/	4.AA-\	.	.	4.cc/	4.a-\	-cum-	.	.
8G/	.	.	.	.	8E-/	8AA-\	.	.	8cc/	8g\	-da-	.	.
2F/	2BB-\	2b-/	2d\	.	2D/	2BB-\	.	.	4b-/	2f\	-ta	.	.
*	*	*	*	*	*	*	*	*	*	*	*above	*	*
.	.	.	.	.	.	.	.	.	[4b-/	.	va-	.	.
=34	=34	=34	=34	=34	=34	=34	=34	=34	=34	=34	=34	=34	=34
2G/	4.E-\	4b-/	4.e-\	.	2E-/	4.E-\	va-	.	4b-/]	2g\	.	va-	.
.	.	8cc/L	.	.	.	.	.	.	8cc/	.	-ri-	.	.
.	8D\	8dd/J	8ryy	.	.	8D\	-ri-	.	8dd/	.	-e-	.	.
2c/	2C\	2ee-/	4g\	.	4E-/	2C\	-e-	.	[2ee-/	4g\	-ta-	-ri-	.
.	.	.	4a-\	.	4E-/	.	.	.	.	4a-\	.	-e-	.
*v	*v	*	*	*	*	*	*	*	*	*	*	*	*
=35	=35	=35	=35	=35	=35	=35	=35	=35	=35	=35	=35	=35
[1B- 1BB-	4ee-/	2b- 2f\	.	1F	1BB-	-ta-	.	4ee-/]	1b-	.	-ta-	.
.	8dd/L	.	.	.	.	.	.	8dd/L	.	.	.	.
.	8cc/J	.	.	.	.	.	.	8cc/J	.	.	.	.
.	2dd/	8f\L	.	.	.	.	.	2dd/	.	.	.	.
.	.	8g\J	.	.	.	.	.	.	.	.	.	.
.	.	4a-\	.	.	.	.	.	.	.	.	.	.
*	*v	*v	*	*	*	*	*	*	*	*	*	*
=36	=36	=36	=36	=36	=36	=36	=36	=36	=36	=36	=36
1B-] 1E- 1EE-;	1ee- 1b- 1g;	.	1G	1E-	-te.	.	1ee-	1b-	-te.	-te.	.
*	*	*	*	*	*	*	*	*	*v	*v	*
*	*	*	*v	*v	*	*	*	*	*	*
*	*	*	*	*	*	*v	*v	*	*
==	==	==	==	==	==	==	==	==
*-	*-	*-	*-	*-	*-	*-	*-	*-
!!!system-decoration: (s1,s2){(s3,s4)}
!!!RDF**kern: i = editorial accidental
!!!RDF**kern: > = above
!!!RDF**kern: < = below
!!!RDF**kern: N = linked
!!!RDF**dynam: > = "dim.", fontstyle= "italic"
!!!RDF**kern: @ = marked note, color=grey
!!!ENC: Andrzej Gręziak
!!!EED: Katarzyna Serwa
!!!END: 2023-10-27
!!!EEV: 2024-04-23
